source/img/logo-microsoft.svg

<svg enable-background="new 0 0 43.922 41.992" height="41.992" viewBox="0 0 43.922 41.992" width="43.922" xmlns="http://www.w3.org/2000/svg"><path d="m20.874 19.953h-20.874v-19.953h20.874z" fill="#f05423"/><path d="m43.922 19.953h-20.873v-19.953h20.873z" fill="#84c441"/><path d="m20.873 41.992h-20.873v-19.952h20.873z" fill="#2dabe2"/><path d="m43.922 41.992h-20.873v-19.952h20.873z" fill="#f9bc15"/></svg>

<svg version="1.0" id="Layer_1" xmlns="http://www.w3.org/2000/svg" xmlns:xlink="http://www.w3.org/1999/xlink" x="0px" y="0px" width="43.922px" height="41.992px" viewBox="0 0 43.922 41.992" enable-background="new 0 0 43.922 41.992" xml:space="preserve">
  <g>
    <path id="path5058" fill="#F05423" d="M20.874,19.953H0V0h20.874V19.953z"/>
    <path id="path5060" fill="#84C441" d="M43.922,19.953H23.049V0h20.873V19.953z"/>
    <path id="path5062" fill="#2DABE2" d="M20.873,41.992H0V22.04h20.873V41.992z"/>
    <path id="path5064" fill="#F9BC15" d="M43.922,41.992H23.049V22.04h20.873V41.992z"/>
  </g>
</svg>
